X:228
T:Star of the County Down, The
S:So long ago I can't remember
Z:Nigel Gatherer
M:4/4
L:1/8
K:Em
B,D|E2 E2 E2 DE|G2 G2 A2 GA|B2 AG ED B,2|D6 B,D|
E2 E2 E2 DE|G2 G2 A2 GA|B2 AG E2 E2|E6|]
Bc|d2 B2 B2 AG|A2 A2 A2 GA|B2 AG ED B,2|d6 B,D|
E2 E2 E2 DE|G2 G2 A2 GA|B2 AG E2 E2|E6:|
<end>
<start>
